!!!COM: Mozart, Wolfgang Amadeus
!!!OTL: String Quartet No. 23 in F Major
!!!OMD: Andante
!!!OMV: 2
!!!SCT1: K<sup>1</sup> 590
!!!SCA: Chronologisch-thematisches Verzeichnis sämtlicher Tonwerke Wolfgang Amade Mozarts (L. von Köchel; 1862, 2/1905, 3/1937, 1947)
!!!SCT2: K<sup>6</sup> 590
!!!YOR: Breitkopf & Härtel Edition
!!!ENC: Frances Bennion
!!!CDT: 1756/1/27/-1791/12/5/
!!!OCY: Österreich
!!!YEC: Copyright (c) 1994, 2000 Center for Computer Assisted Research in the Humanities
!!!YEM: Rights to all derivative editions reserved.
!!!YEM: Refer to licensing agreement for further details.
!!!YEN: United States of America
**kern	**kern	**kern	**kern
*k[]	*k[]	*k[]	*k[]
*C:	*C:	*C:	*C:
*clefC	*clefF	*clefG	*clefG
*M6/8	*M6/8	*M6/8	*M6/8
8CC	8G	8c	8e
8r	8r	8r	8r
8CC	8G	8c	8e
8CC	8G	8c	8e
8CC	8G	8c	8e
8CC	8G	8c	8e
=2	=2	=2	=2
4.EE	2G	4.c	4.g
8GG	.	8B	8d
4r	4r	4r	4r
=3	=3	=3	=3
8DD	8A	8d	8f
8r	8r	8r	8r
8DD	8A	8d	8f
8DD	8A	8d	8f
8DD	8A	8d	8f
8DD	8A	8d	8f
=4	=4	=4	=4
4.FF	2A	4.d	4.a
8AA	.	8c#	8e
4r	4r	4r	4r
=5	=5	=5	=5
8D	8A	8d	8f
8r	8r	8r	8r
8C	8A	8d	8f
8BB	8G	8d	8f
8GG	8G	8B	8f
8C	8G	8c	8e
=6	=6	=6	=6
8D	8F	8A	8f
8r	8r	8r	8r
8C	8A	8d	8f
8BB	8G	8d	8f
8GG	8G	8B	8f
8C	8G	8c	8e
=7	=7	=7	=7
8D	8G	8B	8d
8r	8r	8r	8r
8D	8G	8B	8d
8D	8F#	8A	8d
8DD	8G	8B	8e
8DD	8A	8c	8f#
=8	=8	=8	=8
4.DD	4.c	4.f#	4.a
8GG	8B	8g	8g
4r	4r	4r	8f#
.	.	.	8f
=9	=9	=9	=9
8CC	8c	8e 8G	16e
.	.	.	16c
8r	8r	8r	16g
.	.	.	16e
8CC	8c	8e 8G	16cc
.	.	.	16g
8CC	8c	8e 8G	16ee
.	.	.	16cc
8CC	8c	8e 8G	16gg
.	.	.	16gg
8CC	8c	8e 8G	16gg
.	.	.	16gg
=10	=10	=10	=10
4.EE	4.c	4.g [4.G	16aa
.	.	.	16gg
.	.	.	16ff
.	.	.	16ee
.	.	.	16dd
.	.	.	16cc
8GG	8B	8d 8G]	16ee
.	.	.	16dd
4r	4r	4r	16cc
.	.	.	16b
.	.	.	16a
.	.	.	16g
=11	=11	=11	=11
8DD	8d	8f 8A	16a
.	.	.	16d
8r	8r	8r	16f
.	.	.	16a
8DD	8d	8f 8A	16dd
.	.	.	16a
8DD	8d	8f 8A	16ff
.	.	.	16dd
8DD	8d	8f 8A	16aa
.	.	.	16aa
8DD	8d	8f 8A	16aa
.	.	.	16aa
=12	=12	=12	=12
4.FF	4.d	4.a [4.A	16bb-
.	.	.	16aa
.	.	.	16gg
.	.	.	16ff
.	.	.	16ee
.	.	.	16dd
8AA	8c#	8e 8A]	16ff
.	.	.	16ee
4r	4r	4r	16dd
.	.	.	16cc#
.	.	.	16b
.	.	.	16a
=13	=13	=13	=13
8D	8d	8f 8A	16ff
.	.	.	16f
8r	8r	8r	16a
.	.	.	16dd
8C	8d	8f 8A	16ff
.	.	.	16aa
8BB	8d	8f 8G	16ddd
.	.	.	16bb
8GG	8d	8b	16ddd
.	.	.	16ff
8C	8c	8cc	16ee
.	.	.	16ccc
=14	=14	=14	=14
8D	8F	8f 8A	16ff
.	.	.	16f
8r	8r	8r	16a
.	.	.	16dd
8C	8d	8f 8A	16ff
.	.	.	16aa
8BB	8d	8f 8G	16ddd
.	.	.	16bb
8GG	8d	8b	16ddd
.	.	.	16ff
8AA	8c	8cc	16ee
.	.	.	16ccc
=15	=15	=15	=15
8FF	8d	8f	16cc#
.	.	.	16dd
8r	8r	8r	16ee
.	.	.	16ff
8FF	8d	8f	16gg
.	.	.	16aa
8GG	8c	8e	16ff#
.	.	.	16gg
8GG	8c	8e	16ee
.	.	.	16cc
8GG	8B	8d	16g
.	.	.	16b
=16	=16	=16	=16
16CC	4c	4c	4cc
16EE	.	.	.
16FF	.	.	.
16GG	.	.	.
16AA	2r	2r	2r
16BB	.	.	.
16C	.	.	.
16E	.	.	.
16F	.	.	.
16G	.	.	.
16A	.	.	.
16B	.	.	.
=17	=17	=17	=17
16c	8g	8c	8ee
16B	.	.	.
16c	8r	8r	8r
16G	.	.	.
16E	8g	8c	8ee
16C	.	.	.
16c	8g	8c	8ee
16B	.	.	.
16c	8g	8c	8ee
16G	.	.	.
16E	8g	8c	8ee
16C	.	.	.
=18	=18	=18	=18
16GG	4..g	4.e	4.gg
16BB	.	.	.
16C	.	.	.
16D	.	.	.
16E	.	.	.
16F#	.	.	.
8G	.	8d	8ff
.	16B	.	.
4r	16c	4r	4r
.	16d	.	.
.	16e	.	.
.	16f#	.	.
=19	=19	=19	=19
8B	16g	8g	8dd
.	16f#	.	.
8r	16g	8r	8r
.	16d	.	.
8B	16B	8g	8dd
.	16G	.	.
8B	16g	8g	8dd
.	16f#	.	.
8B	16g	8g	8dd
.	16d	.	.
8B	16B	8g	8dd
.	16G	.	.
=20	=20	=20	=20
4.d	16C	4..g	4.ff
.	16E	.	.
.	16F	.	.
.	16G	.	.
.	16A	.	.
.	16B	.	.
8c	8c	.	8ee
.	.	16e	.
4r	4r	16f	4r
.	.	16g	.
.	.	16a	.
.	.	16b	.
=21	=21	=21	=21
8d	8a	16cc	8ff#
.	.	16b	.
8r	8r	16cc	8r
.	.	16a	.
4d	8a	16f#	8ff#
.	.	16c	.
.	8g	16b	8gg
.	.	16a	.
8d	8g	16b	8gg
.	.	16g	.
8d	8g	16d	8gg
.	.	16B	.
=22	=22	=22	=22
8d	8f#	16a	8ccc
.	.	16g	.
8r	8r	16a	8r
.	.	16f#	.
4d	8f#	16d	8ccc
.	.	16A	.
.	8g	16g	8bb
.	.	16f#	.
8d	8g	16g	8bb
.	.	16d	.
8d	8g	16B	8bb
.	.	16G	.
=23	=23	=23	=23
8d	8g	16b-	8cc#
.	.	16a	.
8r	8r	16b-	8r
.	.	16g	.
4d	4g	16e	4cc#
.	.	16g	.
.	.	16b-	.
.	.	16a	.
8d	8g	16b-	8cc#
.	.	16g	.
8d	8b-	16e	8cc#
.	.	16g	.
=24	=24	=24	=24
4d	4a	4f#	16dd
.	.	.	16ff#
.	.	.	16gg
.	.	.	16aa
2r	2r	2r	16bb
.	.	.	16ccc#
.	.	.	16ddd
.	.	.	16ccc#
.	.	.	16ddd
.	.	.	16ccc#
.	.	.	16ddd
.	.	.	16ccc#
=25	=25	=25	=25
2.r	8g	8b	16ddd
.	.	.	16ccc#
.	8r	8r	16ddd
.	.	.	16bb
.	8g	8b	16gg
.	.	.	16dd
.	8g	8b	16ddd
.	.	.	16ccc#
.	8g	8b	16ddd
.	.	.	16bb
.	8g	8b	16gg
.	.	.	16dd
=26	=26	=26	=26
16DD	4.b	4.dd	16ddd
16FF#	.	.	16dd
16GG	.	.	16ddd
16AA	.	.	16dd
16BB	.	.	16ddd
16C#	.	.	16dd
16D	8a	8cc	16ddd
16F#	.	.	16dd
16G	4r	4r	16ddd
16A	.	.	16dd
16B	.	.	16ddd
16c#	.	.	16dd
=27	=27	=27	=27
16d	8f#	8a	4ddd
16c#	.	.	.
16d	8r	8r	.
16A	.	.	.
16F#	8f#	8a	2r
16D	.	.	.
16d	8f#	8a	.
16c#	.	.	.
16d	8f#	8a	.
16A	.	.	.
16F#	8f#	8a	.
16D	.	.	.
=28	=28	=28	=28
16G	4.a	4.cc	16d
16GG	.	.	16f#
16G	.	.	16g
16GG	.	.	16a
16G	.	.	16b
16GG	.	.	16cc
16G	8g	8b	16dd
16GG	.	.	16ff#
16G	4r	4r	16gg
16GG	.	.	16aa
16G	.	.	16bb
16GG	.	.	16ccc
=29	=29	=29	=29
16G	4G	4B	8ddd
16GG	.	.	.
16G	.	.	8r
16GG	.	.	.
16G	8A	8c	8ddd
16GG	.	.	.
16F	8B	8d	8ddd
16GG	.	.	.
16F	8c	8e	8ddd
16GG	.	.	.
16F	8d	8f	8ddd
16GG	.	.	.
=30	=30	=30	=30
16E	8e	8g	8ddd
16GG	.	.	.
16E	8r	8r	4.ccc
16GG	.	.	.
16E	8g	8cc	.
16GG	.	.	.
16D	8d	8g	.
16GG	.	.	.
16D	8r	8r	[4bb
16GG	.	.	.
16D	8g	8b	.
16GG	.	.	.
=31	=31	=31	=31
16C	8c	8e	8bb]
16GG	.	.	.
16C	8r	8r	4.aa
16GG	.	.	.
16C	8e	8a	.
16GG	.	.	.
16BB	8B	8d	.
16GG	.	.	.
16BB	8r	8r	4gg
16GG	.	.	.
16BB	8d	8g	.
16GG	.	.	.
=32	=32	=32	=32
8C	8c	8e	16aa
.	.	.	16bb
4r	4r	4r	16aa
.	.	.	16gg
.	.	.	16ff#
.	.	.	16ee
8D	8c	8f#	16dd
.	.	.	16ee
4r	4r	4r	16dd
.	.	.	16cc
.	.	.	16b
.	.	.	16a
=33	=33	=33	=33
4.r	4.r	8g	8b
.	.	8r	8r
.	.	8g	8b
8B	8d	8g	8b
8r	8r	8g	8b
8B	8d	8g	8b
=34	=34	=34	=34
8B	8d	4.b	4.dd
8B	8d	.	.
8B	8d	.	.
4.d	4.f#	8f#	8a
.	.	4r	4r
=35	=35	=35	=35
8A	8c	8a	8cc
4r	4r	8r	8r
.	.	8a	8cc
8c	8e	8a	8cc
8r	8r	8a	8cc
8c	8e	8a	8cc
=36	=36	=36	=36
8c	8e	4.cc	4.ee
8c	8e	.	.
8c	8e	.	.
4.e	4.g	8g	8b
.	.	4r	4r
=37	=37	=37	=37
8B	8d	8g#	8ff
4r	4r	8r	8r
.	.	8g#	8ff
8C 8CC	8B	8g#	8ff
8r	8r	8g#	8ff
8C	8B	8g#	8ff
=38	=38	=38	=38
8C	8B	8g#	4..ff
8C	8c	8a	.
8C	8G#	8b	.
8C	8A	8cc	.
.	.	.	16ee
4r	4r	4r	16dd
.	.	.	16cc
.	.	.	16b
.	.	.	16a
=39	=39	=39	=39
8E	4.B-	8c#	8g
8D	.	8d	8r
8C#	.	8e	8g
4.D	8B	8d	8g
.	8d	8g	8b
.	8c	8f#	8a
=40	=40	=40	=40
8G	8B	8g	16r
.	.	.	16b
4r	4r	4r	16dd
.	.	.	16gg
.	.	.	16bb
.	.	.	16ddd
8C	8c	8e	16r
.	.	.	16a
4r	4r	4r	16cc
.	.	.	16ee
.	.	.	16aa
.	.	.	16ccc
=41	=41	=41	=41
8D	8B	8d	16r
.	.	.	16g
4r	4r	4r	16b
.	.	.	16dd
.	.	.	16gg
.	.	.	16bb
8C	8F#	8A	16r
.	.	.	16f#
4r	4r	4r	16a
.	.	.	16dd
.	.	.	16ff#
.	.	.	16aa
=42	=42	=42	=42
8BB	16r	8r	[4ddd
.	16B	.	.
8BB	16d	8gg	.
.	16g	.	.
8r	16b	8gg	16ddd]
.	16dd	.	16bb
8C	16r	8r	[4ccc
.	16A	.	.
8C	16c	8ee	.
.	16e	.	.
8r	16a	8ee	16ccc]
.	16cc	.	16aa
=43	=43	=43	=43
8D	16r	8r	[4bb
.	16G	.	.
8D	16B	8dd	.
.	16d	.	.
8r	16g	8dd	16bb]
.	16b	.	16gg
8DD	16r	8r	[4aa
.	16F#	.	.
8DD	16A	8cc	.
.	16d	.	.
8r	16f#	8cc	16aa]
.	16a	.	16ff#
=44	=44	=44	=44
8G	8g	8b	8gg
8G	8d	8b	8r
8G	8d	8b	8gg
8G	8d	8b	8gg
4r	4r	4r	8gg
.	.	.	8gg
=45	=45	=45	=45
8GG	8G	8B	8gg
8GG	8D	8B	8r
8GG	8D	8B	8g
8GG	8D	8B	8g
4r	4r	4r	8g
.	.	.	8g
=46a	=46a	=46a	=46a
2.r	2.r	2.r	2g
.	.	.	8f#
.	.	.	8f
=46b	=46b	=46b	=46b
2.r	2.r	2.r	4.g
.	.	.	16f#
.	.	.	16g
.	.	.	16f#
.	.	.	16g
.	.	.	16a-
.	.	.	16g
=47	=47	=47	=47
4EE-	8B-	8e-	8g
.	8r	8r	8r
8EE-	8B-	8e-	8g
8EE-	8B-	8e-	8g
8EE-	8B-	8e-	8g
8EE-	8B-	8e-	8g
=48	=48	=48	=48
4.GG	2B-	4.e-	4.b-
16BB-	.	8d	8f
16D	.	.	.
16E-	4r	4r	4r
16F	.	.	.
16G	.	.	.
16A	.	.	.
=49	=49	=49	=49
16b-	2.r	8dd	8ff
16dd	.	.	.
16ee-	.	8r	8r
16ff	.	.	.
16gg	.	8dd	8ff
16aa	.	.	.
16bb-	.	8dd	8ff
16aa	.	.	.
16bb-	.	8dd	8ff
16aa	.	.	.
16bb-	.	8dd	8ff
16aa	.	.	.
=50	=50	=50	=50
[2.bb-	16B-	4dd	4ff
.	16c	.	.
.	16d	.	.
.	16e-	.	.
.	16f	2r	2r
.	16g	.	.
.	16a-	.	.
.	16g	.	.
.	16a-	.	.
.	16g	.	.
.	16a-	.	.
.	16g	.	.
=51	=51	=51	=51
2.bb-_	2a-	8.b-	16b-
.	.	.	16cc
.	.	.	16dd
.	.	16cc	16ee-
.	.	16dd	16ff
.	.	16ee-	16gg
.	.	16ff	16aa-
.	.	16gg	16bb-
.	8g	16aa-	16ccc
.	.	16bb-	16ddd
.	8f	16ccc	16eee-
.	.	16ddd	16fff
=52	=52	=52	=52
16bb-]	8e-	8eee-	8ggg
16gg	.	.	.
16eee-	4r	4r	4r
16ddd	.	.	.
16ccc	.	.	.
16bb-	.	.	.
16aa-	8c	8e-	8ee-
16gg	.	.	.
16ff	4r	4r	4r
16ee-	.	.	.
16dd	.	.	.
16cc	.	.	.
=53	=53	=53	=53
16B-	8B-	8ee-	8gg
16A-	.	.	.
16G	4r	4r	4r
16F	.	.	.
16E-	.	.	.
16D	.	.	.
16C	8A-	8f	8dd
16BB-	.	.	.
16AA-	4r	4r	4r
16GG	.	.	.
16FF	.	.	.
16BB-	.	.	.
=54	=54	=54	=54
2.CC	16r	8g	8ee
.	16b-	.	.
.	16dd-	8r	8r
.	16cc	.	.
.	16b-	8g	8ee
.	16a-	.	.
.	16g	8g	8ee
.	16f	.	.
.	16e	8g	8ee
.	16d-	.	.
.	16c	8g	8ee
.	16B-	.	.
=55	=55	=55	=55
16r	4A-	4a-	4ff
16F	.	.	.
16c	.	.	.
16B-	.	.	.
16A-	2r	2r	2r
16G	.	.	.
16F	.	.	.
16C	.	.	.
16AA-	.	.	.
16GG	.	.	.
16FF	.	.	.
16EE-	.	.	.
=56	=56	=56	=56
2.DD	8a	16r	8ff#
.	.	16cc	.
.	8r	16ee-	8r
.	.	16dd	.
.	8a	16cc	8ff#
.	.	16b-	.
.	8a	16a	8ff#
.	.	16g	.
.	8a	16f#	8ff#
.	.	16e-	.
.	8a	16d	8ff#
.	.	16c	.
=57	=57	=57	=57
16r	4b-	4B-	4gg
16G	.	.	.
16d	.	.	.
16c	.	.	.
16B-	2r	2r	2r
16A	.	.	.
16G	.	.	.
16D	.	.	.
16BB-	.	.	.
16AA	.	.	.
16GG	.	.	.
16FF	.	.	.
=58	=58	=58	=58
[2.EE	8b	8gg#	16r
.	.	.	16ddd
.	8r	8r	16fff
.	.	.	16eee
.	8b	8gg#	16ddd
.	.	.	16ccc
.	8b	8gg#	16bb
.	.	.	16aa
.	8b	8gg#	16gg#
.	.	.	16ff
.	8b	8gg#	16ee
.	.	.	16dd
=59	=59	=59	=59
2.EE_	8cc	8aa	16cc
.	.	.	16a
.	8r	8r	16cc
.	.	.	16b
.	8F#	8d#	16a
.	.	.	16g
.	8F#	8d#	16f#
.	.	.	16e
.	8F#	8d#	16d#
.	.	.	16c
.	8F#	8d#	16B
.	.	.	16A
=60	=60	=60	=60
8EE]	8E	8e	8G#
8e	8g#	8b	8r
8e	8g#	8b	8ee
8e	8g#	8b	8ee
4r	4r	4r	8ee
.	.	.	8ee
=61	=61	=61	=61
8EE	8G#	8B	8ee
8EE	8G#	8B	8r
8EE	8G#	8B	8e
8EE	8G#	8B	8e
4r	4r	4r	8e
.	.	.	8e
=62	=62	=62	=62
2.r	2.r	2.r	4.e
.	.	.	16d#
.	.	.	16e
.	.	.	16d#
.	.	.	16e
.	.	.	16f
.	.	.	16e
=63	=63	=63	=63
8CC	2.r	8c	8e 8G
8r	.	8r	8r
8CC	.	8c	8e 8G
8CC	.	8c	8e 8G
8CC	.	8c	8e 8G
8CC	.	8c	8e 8G
=64	=64	=64	=64
4.EE	2r	4.c	4.g [4.G
8GG	.	8B	8d 8G]
4r	32g	4r	4r
.	16.b	.	.
.	32b	.	.
.	16.dd	.	.
=65	=65	=65	=65
8DD	2.r	8d	8f 8A
8r	.	8r	8r
8DD	.	8d	8f 8A
8DD	.	8d	8f 8A
8DD	.	8d	8f 8A
8DD	.	8d	8f 8A
=66	=66	=66	=66
4.FF	2r	4.d	4.a [4.A
8AA	.	8c#	8e 8A]
4r	32a	4r	4r
.	16.cc#	.	.
.	32cc#	.	.
.	16.ee	.	.
=67	=67	=67	=67
8D	2r	8d	8f 8A
8r	.	8r	8r
8C	.	8d	8f 8A
8BB	.	8d	8f 8G
8GG	32dd	8d	8f
.	16.b	.	.
8C	32cc	8c	8e
.	16.ee	.	.
=68	=68	=68	=68
8D	2r	8A	8f
8r	.	8r	8r
8C	.	8d	8f 8A-
8BB	.	8d	8f 8G
8GG	32dd	8d	8f
.	16.b	.	.
8C	32cc	8c	8e
.	16.ee	.	.
=69	=69	=69	=69
8D	8r	8B	8d 8G
8r	32g	8r	8r
.	16.b	.	.
8D	32b	8B	8d 8G
.	16.dd	.	.
8D	8r	8B	8d 8G
8DD	32ee	8c	8e 8G
.	16.dd	.	.
8DD	32cc	8c	8f# 8A
.	16.a	.	.
=70	=70	=70	=70
4.DD	8r	4.d 4.c	4.a 4.f#
.	32a	.	.
.	16.b	.	.
.	32cc	.	.
.	16.dd	.	.
8GG	8g	16d 16B	8g
.	.	16g	.
4r	4r	16a	4r
.	.	16b	.
.	.	16cc	.
.	.	16dd	.
=71	=71	=71	=71
8r	8cc 8g	8ee	2.r
32CC	8r	8r	.
16.EE	.	.	.
32EE	8cc 8g	8ee	.
16.GG	.	.	.
32GG	8cc 8g	8ee	.
16.C	.	.	.
32C	8cc 8g	8ee	.
16.E	.	.	.
32E	8cc 8g	8ee	.
16.G	.	.	.
=72	=72	=72	=72
4.G	4.ee [4.g	4.gg	8r
.	.	.	32cc
.	.	.	16.ee
.	.	.	32ee
.	.	.	16.gg
8GG	8b 8g]	8dd	32gg
.	.	.	16.bb
4r	4r	4r	32bb
.	.	.	16.ddd
.	.	.	32ddd
.	.	.	16.ggg
=73	=73	=73	=73
8r	8dd	8ff 8a	2.r
32DD	8r	8r	.
16.FF	.	.	.
32FF	8dd	8ff 8a	.
16.AA	.	.	.
32AA	8dd	8ff 8a	.
16.D	.	.	.
32D	8dd	8ff 8a	.
16.F	.	.	.
32F	8dd	8ff 8a	.
16.A	.	.	.
=74	=74	=74	=74
4.A	4.ff	4.aa [4.a	8r
.	.	.	32dd
.	.	.	16.ff
.	.	.	32ff
.	.	.	16.aa
8AA	8cc#	8ee 8a]	32aa
.	.	.	16.ccc#
4r	4r	4r	32ccc#
.	.	.	16.eee
.	.	.	32eee
.	.	.	16.aaa
=75	=75	=75	=75
8r	8dd	8ff 8a	2r
32D	8r	8r	.
16.F	.	.	.
32A	8dd	8ff 8a	.
16.C	.	.	.
32BB	8dd	8ff 8a	.
16.D	.	.	.
32BB	8dd	8ff 8g	32ddd
16.GG	.	.	16.bb
32C	8cc	8ee	32ccc
16.CC	.	.	16.eee
=76	=76	=76	=76
8r	8dd	8ff 8a	2r
32D	8r	8r	.
16.F	.	.	.
32A-	8dd	8ff 8a-	.
16.C	.	.	.
32BB	8dd	8ff 8g	.
16.D	.	.	.
32BB	8dd	8ff 8g	32ddd
16.GG	.	.	16.bb
32C	8cc	8ee	32ccc
16.CC	.	.	16.eee
=77	=77	=77	=77
8FF	8a	8dd 8f	8r
8r	8r	8r	32cc#
.	.	.	16.dd
8F	8d	8f	32ff
.	.	.	16.aa
8G	8c	8e	32ff#
.	.	.	16.gg
8r	8r	8r	32ee
.	.	.	16.cc
8GG	8B	8d	32gg
.	.	.	16.b
=78	=78	=78	=78
16CC	4c	4c	4cc
16EE	.	.	.
16FF	.	.	.
16GG	.	.	.
16AA	2r	2r	2r
16BB	.	.	.
16C	.	.	.
16E	.	.	.
16F	.	.	.
16G	.	.	.
16A	.	.	.
16B	.	.	.
=79	=79	=79	=79
16c	8cc	8f	8aa
16B	.	.	.
16c	8r	8r	8r
16A	.	.	.
16F	8cc	8f	8aa
16C	.	.	.
16c	8cc	8f	8aa
16B	.	.	.
16c	8cc	8f	8aa
16A	.	.	.
16F	8cc	8f	8aa
16A	.	.	.
=80	=80	=80	=80
16C	4..cc	4.a	4.ccc
16E	.	.	.
16F	.	.	.
16G	.	.	.
16A	.	.	.
16B	.	.	.
8c	.	8g	8bb-
.	16e	.	.
4r	16f	4r	4r
.	16g	.	.
.	16a	.	.
.	16b	.	.
=81	=81	=81	=81
8e	16cc	8cc	8gg
.	16b	.	.
8r	16cc	8r	8r
.	16g	.	.
8e	16e	8cc	8gg
.	16c	.	.
8e	16cc	8cc	8gg
.	16b	.	.
8e	16cc	8cc	8gg
.	16g	.	.
8e	16e	8cc	8gg
.	16c	.	.
=82	=82	=82	=82
4.g	16F	2cc	4.bb-
.	16A	.	.
.	16B-	.	.
.	16c	.	.
.	16d	.	.
.	16e	.	.
8f	8f	.	16aa
.	.	.	16aa
4r	4r	4r	16gg
.	.	.	16ff
.	.	.	16ee
.	.	.	16dd
=83	=83	=83	=83
8A	16g	8e	8cc#
.	16f#	.	.
8r	16g	8r	8r
.	16e	.	.
4A	16c#	8e	8cc#
.	16A	.	.
.	16f	8d	8dd
.	16e	.	.
8A	16f	8d	8dd
.	16d	.	.
8A	16A	8d	8dd
.	16F	.	.
=84	=84	=84	=84
8A	16e	8c#	8gg
.	16d	.	.
8r	16e	8r	8r
.	16c#	.	.
4A	16A	8c#	8gg
.	16E	.	.
.	16d	8d	8ff
.	16c#	.	.
8A	16d	8d	8ff
.	16A	.	.
8A	16F	8d	8ff
.	16D	.	.
=85	=85	=85	=85
16f	8G	8d	8b
16e	.	.	.
16f	8r	8r	8r
16d	.	.	.
16B	4G	8d	8b
16G	.	.	.
16e	.	8c	8cc
16d	.	.	.
16e	8G	8c	8cc
16c	.	.	.
16G	8G	8c	8cc
16E	.	.	.
=86	=86	=86	=86
16d	8G	8B	8ff
16c	.	.	.
16d	8r	8r	8r
16B	.	.	.
16G	4G	8B	8ff
16D	.	.	.
16c	.	8c	8ee
16B	.	.	.
16c	8G	8c	8ee
16G	.	.	.
16E	8G	8c	8ee
16C	.	.	.
=87	=87	=87	=87
8G	8c	16e-	8f#
.	.	16d	.
8r	8r	16e-	8r
.	.	16c	.
4G	4c	16A	4f#
.	.	16c	.
.	.	16e-	.
.	.	16d	.
8G	8c	16e-	8f#
.	.	16c	.
8G	8e-	16A	8f#
.	.	16c	.
=88	=88	=88	=88
4GG	4d	4B	16g
.	.	.	16b
.	.	.	16cc
.	.	.	16dd
2r	2r	2r	16ee
.	.	.	16ff#
.	.	.	16gg
.	.	.	16ff#
.	.	.	16gg
.	.	.	16ff#
.	.	.	16gg
.	.	.	16ff#
=89	=89	=89	=89
2.r	8c	8e	16gg
.	.	.	16ff#
.	8r	8r	16gg
.	.	.	16ee
.	8c	8e	16cc
.	.	.	16g
.	8c	8e	16gg
.	.	.	16ff#
.	8c	8e	16gg
.	.	.	16ee
.	8c	8e	16cc
.	.	.	16g
=90	=90	=90	=90
16GG	4.e	4.g	16gg
16BB	.	.	16g
16C	.	.	16gg
16D	.	.	16g
16E	.	.	16gg
16F#	.	.	16g
8G	16d	8f	16gg
.	16B	.	16g
4r	16c	4r	16gg
.	16d	.	16g
.	16e	.	16gg
.	16f#	.	16g
=91	=91	=91	=91
8B	16g	8dd	4gg
.	16f#	.	.
8r	16g	8r	.
.	16d	.	.
8B	16B	8dd	2r
.	16G	.	.
8B	16g	8dd	.
.	16f#	.	.
8B	16g	8dd	.
.	16d	.	.
8B	16B	8dd	.
.	16G	.	.
=92	=92	=92	=92
4.d	16c	4.ff	16g
.	16C	.	16b
.	16c	.	16cc
.	16C	.	16dd
.	16c	.	16ee
.	16C	.	16ff
8c	16c	8ee	16gg
.	16C	.	16bb
4r	16c	4r	16ccc
.	16C	.	16ddd
.	16c	.	16eee
.	16C	.	16fff
=93	=93	=93	=93
4c	16c	4e	8ggg
.	16C	.	.
.	16c	.	8r
.	16C	.	.
8d	16c	8f	8ggg
.	16C	.	.
8e	16B-	8g	8ggg
.	16C	.	.
8f	16B-	8a	8ggg
.	16C	.	.
8g	16B-	8b-	8ggg
.	16C	.	.
=94	=94	=94	=94
8aa	16A	8cc	8ggg
.	16C	.	.
8r	16A	8r	4.fff
.	16C	.	.
8ccc	16A	8ff	.
.	16C	.	.
8gg	16G	8cc	.
.	16C	.	.
8r	16G	8r	[4eee
.	16C	.	.
8ccc	16G	8ee	.
.	16C	.	.
=95	=95	=95	=95
8ff	16F	8a	8eee]
.	16C	.	.
8r	16F	8r	4.ddd
.	16C	.	.
8aa	16F	8dd	.
.	16C	.	.
8ee	16E	8g	.
.	16C	.	.
8r	16E	8r	4ccc
.	16C	.	.
8gg	16E	8cc	.
.	16C	.	.
=96	=96	=96	=96
8ff	8F	8a	16ddd
.	.	.	16eee
4r	4r	4r	16ddd
.	.	.	16ccc
.	.	.	16bb
.	.	.	16aa
8ff	8G	8b	16gg
.	.	.	16aa
4r	4r	4r	16gg
.	.	.	16ff
.	.	.	16ee
.	.	.	16dd
=97	=97	=97	=97
4.r	4.r	8cc	8ee
.	.	8r	8r
.	.	8cc	8ee
8ee	8g	8cc	8ee
8r	8r	8cc	8ee
8ee	8g	8cc	8ee
=98	=98	=98	=98
8ee	8g	4.ee	4.gg
8ee	8g	.	.
8ee	8g	.	.
4.gg	4.b	8b	8dd
.	.	4r	4r
=99	=99	=99	=99
8dd	8f	8dd	8ff
4r	4r	8r	8r
.	.	8dd	8ff
8ff	8a	8dd	8ff
8r	8r	8dd	8ff
8ff	8a	8dd	8ff
=100	=100	=100	=100
8ff	8a	4.ff	4.aa
8ff	8a	.	.
8ff	8a	.	.
4.aa	4.cc	8cc	8ee
.	.	4r	4r
=101	=101	=101	=101
8ee	8g	8cc#	8bb-
4r	4r	8r	8r
.	.	8cc#	8bb-
8FF	8e	8cc#	8bb-
8r	8r	8cc#	8bb-
8FF	8e	8cc#	8bb-
=102	=102	=102	=102
8FF	8e	8cc#	4..bb-
8FF	8f	8dd	.
8FF	8c#	8ee	.
8FF	8d	8ff	.
.	.	.	16aa
4r	4r	4r	16gg
.	.	.	16ff
.	.	.	16ee
.	.	.	16dd
=103	=103	=103	=103
8A-	4.e-	8f#	8cc
8G	.	8g	8r
8F#	.	8a	8cc
4G	8e	8g	8cc
.	4g	8cc	8ee
8F	.	8b	8dd
=104	=104	=104	=104
8E	16r	8r	[4gg
.	16G	.	.
8E	16c	8cc	.
.	16e	.	.
8r	16g	8cc	16gg]
.	16cc	.	16ee
8F	16r	8r	[4ff
.	16A	.	.
8F	16d	8a	.
.	16f	.	.
8r	16a	8a	16ff]
.	16dd	.	16dd
=105	=105	=105	=105
8G	16r	8r	[4ee
.	16c	.	.
8G	16e	8g	.
.	16g	.	.
8r	16cc	8g	16ee]
.	16ee	.	16cc
8GG	16r	8r	[4dd
.	16B	.	.
8GG	16d	8f	.
.	16g	.	.
8r	16b	8f	16dd]
.	16dd	.	16b
=106	=106	=106	=106
[4g	8E	8c	16r
.	.	.	16cc
.	8E	8g	16ee
.	.	.	16gg
16g]	8r	8r	16ccc
16e	.	.	16eee
[4f	8F	8d	16r
.	.	.	16a
.	8F	8a	16dd
.	.	.	16ff
16f]	8r	8r	16aa
16d	.	.	16ddd
=107	=107	=107	=107
[4e	8G	8c	16r
.	.	.	16g
.	8G	8g	16cc
.	.	.	16ee
16e]	8r	8r	16gg
16c	.	.	16ccc
[4d	8G	16B	16r
.	.	16d	16f
.	8G	8f	16b
.	.	.	16dd
16d]	8r	8r	16ff
16B	.	.	16dd
=108	=108	=108	=108
8c	8c	8e	8cc
8c	8g	8ee	8r
8c	8g	8ee	8ccc
8c	8g	8ee	8ccc
4r	4r	4r	8ccc
.	.	.	8ccc
=109	=109	=109	=109
8C	8G	8e	8ccc
8C	8G	8e	8r
8C	8G	8e	8cc
8C	8G	8e	8cc
4r	4r	4r	8cc
.	.	.	8cc
=110	=110	=110	=110
8CC	8E-	8G	8cc
8CC	8E-	8G	8r
8CC	8E-	8G	8g
8CC	8E-	8G	8g
4r	4r	4r	8g
.	.	.	8g
=111	=111	=111	=111
8r	8r	[2.c	4g
8AA-	8C	.	.
8AA-	8D	.	8f#
8AA-	8E-	.	8f#
4r	4r	.	8f#
.	.	.	8g
=112	=112	=112	=112
8r	8r	2.c_	4g
8AA	8C	.	.
8AA	8D	.	8f#
8AA	8E-	.	8f#
4r	4r	.	8f#
.	.	.	8g
=113	=113	=113	=113
2.GG	8E	2c_	4.e
.	8C	.	.
.	8A	.	.
.	8F	.	4.d
.	8D	8c]	.
.	8G	8B	.
=114	=114	=114	=114
4C	4E	4c	16c
.	.	.	16e
.	.	.	16f
.	.	.	16g
2r	2r	2r	16a
.	.	.	16b
.	.	.	16cc
.	.	.	16ee
.	.	.	16ff
.	.	.	16gg
.	.	.	16aa
.	.	.	16bb
=115	=115	=115	=115
4.G	4.e 4.c	4.gg	16ccc
.	.	.	16eee
.	.	.	16ddd
.	.	.	16ccc
.	.	.	16bb
.	.	.	16aa
4.GG	4.f 4.d	4.b	16gg
.	.	.	16aa
.	.	.	16gg
.	.	.	16ff
.	.	.	16ee
.	.	.	16dd
=116	=116	=116	=116
16CC	4e 4c	4cc	4cc
16EE	.	.	.
16FF	.	.	.
16GG	.	.	.
16AA	2r	2r	2r
16BB	.	.	.
16C	.	.	.
16E	.	.	.
16F	.	.	.
16G	.	.	.
16A	.	.	.
16B	.	.	.
=117	=117	=117	=117
16c	4.E	[2.G	4.g
16e	.	.	.
16d	.	.	.
16c	.	.	.
16B	.	.	.
16A	.	.	.
16G	4.F	.	4.B
16A	.	.	.
16G	.	.	.
16F	.	.	.
16E	.	.	.
16D	.	.	.
=118	=118	=118	=118
16C	8E	8G]	8c
16E	.	.	.
16F	8r	8r	8r
16G	.	.	.
16A	8e	8cc	8gg
16B	.	.	.
16c	8e	8cc	8gg
16B	.	.	.
16c	8e	8cc	8gg
16B	.	.	.
16c	8e	8cc	8gg
16B	.	.	.
=119	=119	=119	=119
8c	16e	8cc	8gg
.	16e	.	.
8r	16f	8r	8r
.	16g	.	.
8e	16a	8gg	8ccc
.	16b	.	.
8e	16cc	8gg	8ccc
.	16b	.	.
8e	16cc	8gg	8ccc
.	16b	.	.
8e	16cc	8gg	8ccc
.	16b	.	.
=120	=120	=120	=120
8e	8cc	16gg	8ccc
.	.	16ee	.
8r	8r	16ff	8r
.	.	16gg	.
8ccc	8gg	16aa	8eee
.	.	16bb	.
8ccc	8gg	16ccc	8eee
.	.	16bb	.
8ccc	8gg	16ccc	8eee
.	.	16bb	.
8ccc	8gg	16ccc	8eee
.	.	16bb	.
=121	=121	=121	=121
8ccc	8gg	8ccc	16eee
.	.	.	16eee
8r	8r	8r	16fff
.	.	.	16ggg
8CC	8E	8G	16aaa
.	.	.	16bbb
8CC	8E	8G	16cccc
.	.	.	16bbb
8CC	8E	8G	16cccc
.	.	.	16bbb
8CC	8E	8G	16cccc
.	.	.	16bbb
=122	=122	=122	=122
4CC	4E	4G	4cccc
2r	2r	2r	2r
==	==	==	==
*-	*-	*-	*-
!!!RWG1: This file contains only pitch and duration data.
!!!RWG2: Transposing instruments are not transposed.
!!!RWG3: Spines may have incompatible meters.
!!!RWG4: Durations of rests and tied notes may be interpreted.
!!!RWG: Key is interpreted using the Humdrum key tool.
!!!AFT: stage1
!!!END: 1997/04/15
!!!KEY: 944785638
!!!EMD: Converted from MuseData to Humdrum Dec 16, 2000, by Andreas Kornstaedt using muse2kern.
!!!EMD: Manual editing by Craig Sapp, Nov 2001
